storage/app/icons/phosphoricons/thin/folder-thin.svg

<svg xmlns="http://www.w3.org/2000/svg" fill="currentColor" viewBox="0 0 256 256"><path d="M216 76h-86.34l-28.49-28.48A11.9 11.9 0 0 0 92.69 44H40a12 12 0 0 0-12 12v144.62A11.4 11.4 0 0 0 39.38 212h177.51A11.12 11.12 0 0 0 228 200.89V88a12 12 0 0 0-12-12M36 56a4 4 0 0 1 4-4h52.69a4 4 0 0 1 2.82 1.17L118.34 76H36Zm184 144.89a3.12 3.12 0 0 1-3.11 3.11H39.38a3.39 3.39 0 0 1-3.38-3.38V84h180a4 4 0 0 1 4 4Z"/></svg>

<svg xmlns="http://www.w3.org/2000/svg" viewBox="0 0 256 256" fill="currentColor"><path d="M216,76H129.66L101.17,47.52A11.9,11.9,0,0,0,92.69,44H40A12,12,0,0,0,28,56V200.62A11.4,11.4,0,0,0,39.38,212H216.89A11.12,11.12,0,0,0,228,200.89V88A12,12,0,0,0,216,76ZM36,56a4,4,0,0,1,4-4H92.69a4,4,0,0,1,2.82,1.17L118.34,76H36ZM220,200.89a3.12,3.12,0,0,1-3.11,3.11H39.38A3.39,3.39,0,0,1,36,200.62V84H216a4,4,0,0,1,4,4Z"/></svg>
